icons/numix/32x32/mimetypes/wps-office-dot.svg

<?xml version="1.0" encoding="UTF-8" standalone="no"?>
<svg
   xmlns:dc="http://purl.org/dc/elements/1.1/"
   xmlns:cc="http://creativecommons.org/ns#"
   xmlns:rdf="http://www.w3.org/1999/02/22-rdf-syntax-ns#"
   xmlns:svg="http://www.w3.org/2000/svg"
   xmlns="http://www.w3.org/2000/svg"
   xmlns:sodipodi="http://sodipodi.sourceforge.net/DTD/sodipodi-0.dtd"
   xmlns:inkscape="http://www.inkscape.org/namespaces/inkscape"
   width="32"
   height="32"
   viewBox="0 0 32 32"
   id="svg2"
   version="1.1"
   inkscape:version="0.48.5 r10040"
   sodipodi:docname="wps-office-dot.svg">
  <metadata
     id="metadata36">
    <rdf:RDF>
      <cc:Work
         rdf:about="">
        <dc:format>image/svg+xml</dc:format>
        <dc:type
           rdf:resource="http://purl.org/dc/dcmitype/StillImage" />
      </cc:Work>
    </rdf:RDF>
  </metadata>
  <defs
     id="defs34" />
  <sodipodi:namedview
     pagecolor="#ffffff"
     bordercolor="#666666"
     borderopacity="1"
     objecttolerance="10"
     gridtolerance="10"
     guidetolerance="10"
     inkscape:pageopacity="0"
     inkscape:pageshadow="2"
     inkscape:window-width="1280"
     inkscape:window-height="970"
     id="namedview32"
     showgrid="true"
     inkscape:zoom="22.627417"
     inkscape:cx="18.567658"
     inkscape:cy="8.8354635"
     inkscape:window-x="0"
     inkscape:window-y="0"
     inkscape:window-maximized="1"
     inkscape:current-layer="svg2">
    <inkscape:grid
       type="xygrid"
       id="grid3036" />
  </sodipodi:namedview>
  <path
     inkscape:connector-curvature="0"
     style="fill:#3468ce;fill-opacity:1"
     d="M 5.3437502,9.9999997e-8 C 4.6562764,1.51e-5 4,0.6890071 4,1.4062501 L 4,30.59375 C 4,31.270239 4.6953364,32 5.3437502,32 L 26.65625,32 C 27.304664,32 28,31.270239 28,30.59375 L 28,8.999999 28,1.3750001 C 28,0.7020491 27.297951,9.9999999e-8 26.625,9.9999999e-8 l -7.625,0 -13.6562498,0 z"
     id="path4-1" />
  <rect
     style="fill:#f9f9f9;fill-opacity:1;fill-rule:evenodd;stroke:none"
     id="rect3029"
     width="6"
     height="5"
     x="10"
     y="10" />
  <rect
     style="fill:#f9f9f9;fill-opacity:1;fill-rule:evenodd;stroke:none"
     id="rect3031"
     width="5"
     height="1"
     x="17"
     y="10" />
  <rect
     style="fill:#f9f9f9;fill-opacity:1;fill-rule:evenodd;stroke:none"
     id="rect3033"
     width="5"
     height="1"
     x="17"
     y="12" />
  <rect
     style="fill:#f9f9f9;fill-opacity:1;fill-rule:evenodd;stroke:none"
     id="rect3035"
     width="5"
     height="1"
     x="17"
     y="13.999999" />
  <rect
     style="fill:#f9f9f9;fill-opacity:1;fill-rule:evenodd;stroke:none"
     id="rect3037"
     width="12"
     height="1"
     x="10"
     y="15.999999" />
  <rect
     style="fill:#f9f9f9;fill-opacity:1;fill-rule:evenodd;stroke:none"
     id="rect3039"
     width="12"
     height="1"
     x="10"
     y="17.999998" />
  <rect
     style="fill:#f9f9f9;fill-opacity:1;fill-rule:evenodd;stroke:none"
     id="rect3041"
     width="12"
     height="1"
     x="10"
     y="19.999998" />
  <path
     style="fill:#000000;fill-opacity:0.19599998"
     d="m 4,24 0,6.667969 C 4,31.316407 4.6875,32 5.3320312,32 L 26.667969,32 C 27.3125,32 28,31.316407 28,30.667969 L 28,24 z"
     id="path22"
     inkscape:connector-curvature="0" />
  <g
     style="fill:#ffffff"
     id="g24"
     transform="matrix(1.0512595,0,0,1.0512595,-0.82991688,-0.42690971)">
    <path
       d="m 10.488281,29.066406 c 0.03125,0.0078 0.06641,0.0078 0.101563,0.0078 0.03906,0 0.07422,0 0.105468,0 0.261719,0 0.480469,-0.04297 0.65625,-0.132813 0.179688,-0.08594 0.324219,-0.207031 0.429688,-0.363281 0.113281,-0.152344 0.191406,-0.332031 0.234375,-0.542969 0.05078,-0.214844 0.07813,-0.449218 0.07813,-0.703125 0,-0.21875 -0.01953,-0.433593 -0.05859,-0.644531 C 12,26.480469 11.933594,26.296875 11.839844,26.136719 c -0.09375,-0.160157 -0.222656,-0.285157 -0.386719,-0.378907 -0.160156,-0.101562 -0.371094,-0.148437 -0.628906,-0.148437 -0.05078,0 -0.105469,0 -0.167969,0.0078 -0.0625,0 -0.117188,0.0039 -0.167969,0.01562 l 0,3.433594 m 2.777344,-1.734375 c 0,0.476563 -0.07031,0.878907 -0.207031,1.214844 -0.132813,0.332031 -0.316406,0.601563 -0.554688,0.808594 -0.238281,0.210937 -0.519531,0.363281 -0.851562,0.464843 -0.328125,0.08984 -0.6875,0.136719 -1.082032,0.136719 -0.203124,0 -0.40625,-0.0078 -0.609374,-0.03125 -0.191407,-0.01563 -0.402344,-0.04687 -0.628907,-0.08984 l 0,-4.988282 c 0.265625,-0.04687 0.511719,-0.08203 0.742188,-0.09766 0.230469,-0.01563 0.449219,-0.02734 0.648437,-0.02734 0.382813,0 0.726563,0.05078 1.039063,0.152344 0.320312,0.09766 0.589843,0.253906 0.808593,0.46875 0.21875,0.210938 0.386719,0.480469 0.507813,0.808594 0.125,0.324218 0.1875,0.71875 0.1875,1.179687"
       id="path26"
       inkscape:connector-curvature="0" />
    <path
       d="m 14.945312,27.332031 c 0,0.25 0.0078,0.484375 0.02734,0.703125 0.02344,0.214844 0.07031,0.402344 0.132813,0.5625 0.06641,0.160156 0.160156,0.285156 0.28125,0.378906 0.117187,0.09375 0.277343,0.140626 0.476562,0.140626 0.195313,0 0.351563,-0.04688 0.46875,-0.140626 0.125,-0.09375 0.21875,-0.21875 0.28125,-0.378906 0.07031,-0.167968 0.113281,-0.355468 0.132813,-0.570312 0.02344,-0.214844 0.03906,-0.445313 0.03906,-0.695313 0,-0.246093 -0.01563,-0.476562 -0.03906,-0.691406 -0.01953,-0.222656 -0.0625,-0.410156 -0.132813,-0.570313 -0.0625,-0.160156 -0.152343,-0.285156 -0.269531,-0.378906 -0.121094,-0.09375 -0.28125,-0.140625 -0.480469,-0.140625 -0.199219,0 -0.359375,0.04687 -0.476562,0.140625 -0.121094,0.09375 -0.214844,0.222656 -0.28125,0.386719 -0.0625,0.160156 -0.109375,0.347656 -0.132813,0.5625 -0.01953,0.214844 -0.02734,0.445313 -0.02734,0.691406 m -1.171874,0 c 0,-0.878906 0.183593,-1.542969 0.550781,-1.988281 0.371093,-0.453125 0.882812,-0.675781 1.539062,-0.675781 0.683594,0 1.203125,0.222656 1.558594,0.675781 0.355469,0.445312 0.535156,1.109375 0.535156,1.988281 0,0.882813 -0.183593,1.546875 -0.542969,2 C 17.050781,29.777344 16.535156,30 15.875,30 c -0.683594,0 -1.207031,-0.222656 -1.570312,-0.667969 -0.355469,-0.453125 -0.53125,-1.117187 -0.53125,-2"
       id="path28"
       inkscape:connector-curvature="0" />
    <path
       d="m 22.667969,24.78125 0,0.84375 -1.53125,0 0,4.269531 -1.164063,0 0,-4.269531 -1.527344,0 0,-0.84375 4.222657,0"
       id="path30"
       inkscape:connector-curvature="0" />
  </g>
</svg>

<svg width="32" xmlns="http://www.w3.org/2000/svg" height="32" viewBox="0 0 32 32" xmlns:xlink="http://www.w3.org/1999/xlink">
<path style="fill:#3468ce" d="M 5.332031 0.667969 C 4.648438 0.667969 4 1.3125 4 2 L 4 30 C 4 30.648438 4.6875 31.332031 5.332031 31.332031 L 26.667969 31.332031 C 27.3125 31.332031 28 30.648438 28 30 L 28 2 C 28 1.3125 27.351562 0.667969 26.667969 0.667969 Z "/>
<path style="fill:#fff" d="M 10.71875 10.667969 L 15.28125 10.667969 C 15.492188 10.667969 15.667969 10.847656 15.667969 11.066406 L 15.667969 14.933594 C 15.667969 15.152344 15.492188 15.332031 15.28125 15.332031 L 10.71875 15.332031 C 10.507812 15.332031 10.332031 15.152344 10.332031 14.933594 L 10.332031 11.066406 C 10.332031 10.847656 10.507812 10.667969 10.71875 10.667969 Z "/>
<g style="stroke-linecap:round;fill:none;stroke:#fff;stroke-linejoin:round">
<path d="M 26.498047 17.5 L 31.501953 17.5 " transform="matrix(.66667 0 0 .66667 -.33333 -.66667)"/>
<path d="M 26.498047 20.5 L 31.501953 20.5 " transform="matrix(.66667 0 0 .66667 -.33333 -.66667)"/>
<path d="M 26.498047 23.5 L 31.501953 23.5 " transform="matrix(.66667 0 0 .66667 -.33333 -.66667)"/>
<path d="M 15.998047 26.5 L 32 26.5 " transform="matrix(.66667 0 0 .66667 -.33333 -.66667)"/>
<path d="M 15.998047 29.5 L 32 29.5 " transform="matrix(.66667 0 0 .66667 -.33333 -.66667)"/>
<path d="M 15.998047 32.5 L 32 32.5 " transform="matrix(.66667 0 0 .66667 -.33333 -.66667)"/>
</g>
<path style="fill:#000;fill-opacity:.196" d="M 4 23.332031 L 4 30 C 4 30.648438 4.6875 31.332031 5.332031 31.332031 L 26.667969 31.332031 C 27.3125 31.332031 28 30.648438 28 30 L 28 23.332031 Z "/>
<g style="fill:#fff">
<path d="M 10.488281 29.066406 C 10.519531 29.074219 10.554688 29.074219 10.589844 29.074219 C 10.628906 29.074219 10.664062 29.074219 10.695312 29.074219 C 10.957031 29.074219 11.175781 29.03125 11.351562 28.941406 C 11.53125 28.855469 11.675781 28.734375 11.78125 28.578125 C 11.894531 28.425781 11.972656 28.246094 12.015625 28.035156 C 12.066406 27.820312 12.09375 27.585938 12.09375 27.332031 C 12.09375 27.113281 12.074219 26.898438 12.035156 26.6875 C 12 26.480469 11.933594 26.296875 11.839844 26.136719 C 11.746094 25.976562 11.617188 25.851562 11.453125 25.757812 C 11.292969 25.65625 11.082031 25.609375 10.824219 25.609375 C 10.773438 25.609375 10.71875 25.609375 10.65625 25.617188 C 10.59375 25.617188 10.539062 25.621094 10.488281 25.632812 L 10.488281 29.066406 M 13.265625 27.332031 C 13.265625 27.808594 13.195312 28.210938 13.058594 28.546875 C 12.925781 28.878906 12.742188 29.148438 12.503906 29.355469 C 12.265625 29.566406 11.984375 29.71875 11.652344 29.820312 C 11.324219 29.910156 10.964844 29.957031 10.570312 29.957031 C 10.367188 29.957031 10.164062 29.949219 9.960938 29.925781 C 9.769531 29.910156 9.558594 29.878906 9.332031 29.835938 L 9.332031 24.847656 C 9.597656 24.800781 9.84375 24.765625 10.074219 24.75 C 10.304688 24.734375 10.523438 24.722656 10.722656 24.722656 C 11.105469 24.722656 11.449219 24.773438 11.761719 24.875 C 12.082031 24.972656 12.351562 25.128906 12.570312 25.34375 C 12.789062 25.554688 12.957031 25.824219 13.078125 26.152344 C 13.203125 26.476562 13.265625 26.871094 13.265625 27.332031 "/>
<path d="M 14.945312 27.332031 C 14.945312 27.582031 14.953125 27.816406 14.972656 28.035156 C 14.996094 28.25 15.042969 28.4375 15.105469 28.597656 C 15.171875 28.757812 15.265625 28.882812 15.386719 28.976562 C 15.503906 29.070312 15.664062 29.117188 15.863281 29.117188 C 16.058594 29.117188 16.214844 29.070312 16.332031 28.976562 C 16.457031 28.882812 16.550781 28.757812 16.613281 28.597656 C 16.683594 28.429688 16.726562 28.242188 16.746094 28.027344 C 16.769531 27.8125 16.785156 27.582031 16.785156 27.332031 C 16.785156 27.085938 16.769531 26.855469 16.746094 26.640625 C 16.726562 26.417969 16.683594 26.230469 16.613281 26.070312 C 16.550781 25.910156 16.460938 25.785156 16.34375 25.691406 C 16.222656 25.597656 16.0625 25.550781 15.863281 25.550781 C 15.664062 25.550781 15.503906 25.597656 15.386719 25.691406 C 15.265625 25.785156 15.171875 25.914062 15.105469 26.078125 C 15.042969 26.238281 14.996094 26.425781 14.972656 26.640625 C 14.953125 26.855469 14.945312 27.085938 14.945312 27.332031 M 13.773438 27.332031 C 13.773438 26.453125 13.957031 25.789062 14.324219 25.34375 C 14.695312 24.890625 15.207031 24.667969 15.863281 24.667969 C 16.546875 24.667969 17.066406 24.890625 17.421875 25.34375 C 17.777344 25.789062 17.957031 26.453125 17.957031 27.332031 C 17.957031 28.214844 17.773438 28.878906 17.414062 29.332031 C 17.050781 29.777344 16.535156 30 15.875 30 C 15.191406 30 14.667969 29.777344 14.304688 29.332031 C 13.949219 28.878906 13.773438 28.214844 13.773438 27.332031 "/>
<path d="M 22.667969 24.78125 L 22.667969 25.625 L 21.136719 25.625 L 21.136719 29.894531 L 19.972656 29.894531 L 19.972656 25.625 L 18.445312 25.625 L 18.445312 24.78125 L 22.667969 24.78125 "/>
</g>
</svg>
